!!!OTL: 210. Plyeskun
!!!Genre:	Plyeskun
!!!Mode:	Major (Mixolydian)
!!!Listening/dance:	dance
!!!One_Mode:	yes
**kern
*I"P1
*clefG2
*k[f#]
*G:
*M2/4
*>A
=1
8d
4g
8a
=2
16bLL
16cc
16b
16aJJ
8gL
8bJ
=3
8aL
8d
8e
8f#J
=4
8gL
16bL
16aJJ
16gLL
16f#
16e
16dJJ
=5
8d
4a
8a
=6
16bLL
16cc
16b
16aJJ
8gL
8bJ
=7
8aL
8d
8e
8f#J
*>A1
=8
4.g
8d
*>A2
=9:|!
2g
=10!|:
*>B
16aLL
16b
16cc
16aJJ
4b
=11
8dL
8dJ
4g
=12
16ddLL
16cc
16b
16aJJ
4b
=13
8dL
8dJ
4g
=14:|!
*>C
8gL
8f#
8e
8aJ
=15
2d
=16
8gL
8f#
8e
8aJ
=17
16dLL
16e
16f#
16gJJ
16aLL
16b
16cc#X
16ddJJ
=18
8gL
8f#
8e
8aJ
=19
4.d
8d
=20!|:
*>D
2dd
=21
(8qcc#X/
2dd)
=22
(8qcc#X/
4dd)
(8qcc#/
4dd)
=23
(8qcc#X/
4dd)
(8qcc#/
4dd)
=24
(8.ffnL
16eeJk)
(16eeLL
16dd)
16dd
16ccnJJ
=25
(8.eeL
16ddJk)
16ddLL
16cc
(16cc
16bJJ)
=26
(8.ddL
16ccJk)
(16ccLL
16b)
(16b
16aJJ)
=27
(8.ccL
16bJk)
(16bLL
16a)
(16a
16gJJ)
=28
(8.ffnL
16eeJk)
(16eeLL
16dd)
16dd
16ccnJJ
=29
(8.eeL
16ddJk)
(16ddLL
16cc)
(16cc
16bJJ)
=30
(8.ddL
16ccJk)
(16ccLL
16b)
(16b
16aJJ)
=31
(8.ccL
16bJk)
(16bLL
16a)
(16a
16gJJ)
==
*-
